svg/u2198.svg

<svg viewBox="0 0 128 128" xmlns="http://www.w3.org/2000/svg">
  <g>
    <path d="M116,4H12c-4.4,0-8,3.6-8,8v104c0,4.4,3.6,8,8,8h104c4.4,0,8-3.6,8-8V12C124,7.6,120.4,4,116,4z" fill="#427687"/>
    <path d="M109.7,4H11.5C7.4,4,4,7.4,4,11.5v97.9c0,4.2,3.4,7.5,7.5,7.5h98.1c4.2,0,7.5-3.4,7.5-7.5V11.5 C117.3,7.4,113.8,4,109.7,4z" fill="#8CAFBF"/>
  </g>
  <path d="M97.71,56.67v33.94c0.14,2.4-1.84,4.38-4.24,4.24H59.52c-3.46-0.21-4.95-4.38-2.55-6.79l9.9-9.9 c0.78-0.78,0.78-2.05,0-2.83L34.34,42.8c-1.56-1.56-1.56-4.1,0-5.66L40,31.48c1.56-1.56,4.1-1.56,5.66,0l32.53,32.54 c0.78,0.78,2.05,0.78,2.83,0l9.9-9.9C93.32,51.72,97.5,53.2,97.71,56.67z" fill="#FAFAFA"/>
  <path d="M39.7,12.9c0-2.3-1.6-3-10.8-2.7c-7.7,0.3-11.5,1.2-13.8,4 s-2.9,8.5-3,15.3c0,4.8,0,9.3,2.5,9.3c3.4,0,3.4-7.9,6.2-12.3C26.2,17.8,39.7,15.9,39.7,12.9z" opacity="0.5" fill="#B4E1ED" enable-background="new "/>
</svg>

<svg viewBox="0 0 128 128" xmlns="http://www.w3.org/2000/svg">
  <defs/>
  <path d="M116,4 L12,4 C7.6,4 4,7.6 4,12 L4,116 C4,120.4 7.6,124 12,124 L116,124 C120.4,124 124,120.4 124,116 L124,12 C124,7.6 120.4,4 116,4 Z" fill="#427687"/>
  <path d="M109.7,4 L11.5,4 C7.4,4 4,7.4 4,11.5 L4,109.4 C4,113.6 7.4,116.9 11.5,116.9 L109.6,116.9 C113.8,116.9 117.1,113.5 117.1,109.4 L117.1,11.5 C117.3,7.4 113.8,4 109.7,4 Z" fill="#8CAFBF"/>
  <path d="M97.71,56.67 L97.71,90.61 C97.85,93.01 95.87,94.99 93.47,94.85 L59.52,94.85 C56.06,94.64 54.57,90.47 56.97,88.06 L66.87,78.16 C67.65,77.38 67.65,76.11 66.87,75.33 L34.34,42.8 C32.78,41.24 32.78,38.7 34.34,37.14 L40,31.48 C41.56,29.92 44.1,29.92 45.66,31.48 L78.19,64.02 C78.97,64.8 80.24,64.8 81.02,64.02 L90.92,54.12 C93.32,51.72 97.5,53.2 97.71,56.67 Z" fill="#FAFAFA"/>
  <path d="M39.7,12.9 C39.7,10.6 38.1,9.9 28.9,10.2 C21.2,10.5 17.4,11.4 15.1,14.2 C12.8,17 12.2,22.7 12.1,29.5 C12.1,34.3 12.1,38.8 14.6,38.8 C18,38.8 18,30.9 20.8,26.5 C26.2,17.8 39.7,15.9 39.7,12.9 Z" fill="#B4E1ED" opacity="0.5"/>
</svg>
